public/assets/images/patterns/tic-tac-toe.svg

<svg height="64" viewBox="0 0 64 64" width="64" xmlns="http://www.w3.org/2000/svg"><path d="m8 16c4.418278 0 8-3.581722 8-8s-3.581722-8-8-8-8 3.581722-8 8 3.581722 8 8 8zm0-2c3.3137085 0 6-2.6862915 6-6s-2.6862915-6-6-6-6 2.6862915-6 6 2.6862915 6 6 6zm33.4142136-6 5.9497474-5.94974747-1.4142135-1.41421356-5.9497475 5.94974747-5.9497475-5.94974747-1.4142135 1.41421356 5.9497474 5.94974747-5.9497474 5.9497475 1.4142135 1.4142135 5.9497475-5.94974744 5.9497475 5.94974744 1.4142135-1.4142135zm-1.4142136 40c4.418278 0 8-3.581722 8-8s-3.581722-8-8-8-8 3.581722-8 8 3.581722 8 8 8zm0-2c3.3137085 0 6-2.6862915 6-6s-2.6862915-6-6-6-6 2.6862915-6 6 2.6862915 6 6 6zm-30.58578644-6 5.94974744-5.9497475-1.4142135-1.4142135-5.9497475 5.9497474-5.94974747-5.9497474-1.41421356 1.4142135 5.94974747 5.9497475-5.94974747 5.9497475 1.41421356 1.4142135 5.94974747-5.9497474 5.9497475 5.9497474 1.4142135-1.4142135z" fill-rule="evenodd"/></svg>

<svg xmlns="http://www.w3.org/2000/svg" width="64" height="64" viewBox="0 0 64 64"><path fill-rule="evenodd" d="M8 16A8 8 0 1 0 8 0a8 8 0 0 0 0 16zm0-2A6 6 0 1 0 8 2a6 6 0 0 0 0 12zm33.414-6l5.95-5.95L45.95.636 40 6.586 34.05.636 32.636 2.05 38.586 8l-5.95 5.95 1.414 1.414L40 9.414l5.95 5.95 1.414-1.414zM40 48a8 8 0 1 0 0-16 8 8 0 0 0 0 16zm0-2a6 6 0 1 0 0-12 6 6 0 0 0 0 12zM9.414 40l5.95-5.95-1.414-1.414L8 38.586l-5.95-5.95L.636 34.05 6.586 40l-5.95 5.95 1.414 1.414L8 41.414l5.95 5.95 1.414-1.414z"/></svg>
